X: 21261
T: BONNY CHRISTIE
%R: shottish, strathspey
B: "Edinburgh Repository of Music" v.2 p.126 #1
F: http://digital.nls.uk/special-collections-of-printed-music/pageturner.cfm?id=87776133
Z: 2015 John Chambers <jc:trillian.mit.edu>
N: In bar 11, the high f probably needs a natural sign, as in bar 3.
M: C|
L: 1/8
K: G
g>e |\
d<BA>G D>EG>A | B2G2 G2c_B | _BAG=F ~=f3g | {=fg}a2A2 A2g>e |\
d<BA>G D>EGA | B2G2 G3B | {B}A>GA>B dega | g2G2 G2 :|
|: c>B |\
{B}AGAB dega | {ga}b2d2 d2c>_B | _BAG=F ~f3g | {fg}a2A2 A2GA |\
{c}B2AB {d}c2Bc | d2ef {a}g2fe | d<gB<d A>Bc{e}d | B2G>A G2 :|
